X:2093
L:1/8
M:2/2
K:Edor
 F |: GFEF GAB^c | dDDE FGAF | GFEF GABe | dBAF E2 EF | GFEF GAB^c | dDDE FGAF | GBGE FAFD | 
 dBAF E2 E || B | edBd efge | dBAB defd | edBd efge | dBAF E2 Ed | edBd efge | dBAB defd | 
 gefd edBe | dBAF E2 E ||

